X: 30
M:4/4
L:1/8
K:G
dc|BGBd gabg|agge dedc|BGBd cAFG|AG (3FED FAdc|
|:ga|bagf gbag|fed^c defg|a2 af gbag|fge^c d2 ef|
gbaf gage|dedB cedc|BGBd cAFA|G2 GG G2:||

